X:532
T: Shengsi liangxianglian
N: C1950
O: China,Henan Queshan
S: IV, 134]
R: Xiaodiao]
M: 2/4
L: 1/16
K: F
c3cd2f2 | c3dc2A2 | G2AcF2ED | C8 |
A2A2c2d2 | f2d2c2z2 | c2A2G2D2 | F8 |
A2AcD2F2 | c3dc2A2 | G2AcD2F2 | G8 |
A3Ac2d2 | f2d2c2A2 | G2GAGFD2 | c6A2 |
G2GAGFD2 | F8

@@@ Tune index: 7087
